X: 28624
T: Music In The Glen
R: reel
M: 4/4
K: Gmajor
|:G2BG EGDc|BDGB AGAB|1 cdec BBdB|BAAG AGEF|2 cdec ABBB|BABG AGEF||
|:GABG EGDc|BDGB AGAB|cdef g2ge|dcBA G2|D2:|
BGdG egdA|AGdB cAFA|BGdG eg de|gdBG AGEG|
AGdG egde|ggfg a~f3|g2fg (3efg dB|BABG AGEG||

